X:69
T:Zisook's Schottische
C:Bill Quern 2001
M:4/4
R:Schottische
L:1/8
Z:SG
K:Dm
(3AB^c|"Dm"d3 e f2 ed|"A7"^cdcB A2 AG|"Dm"FEDF "A7"ED^CE|
"Dm"DEFG "A7"A2 (3AB^c|"Dm"d3 e f2 ed|"A7"^cdcB A2 AG|"Dm"FEDF "A7"ED^CE|"Dm"D3 E D2:|
|:"C"=C3 E G3 B|"Dm"B2 A2 F4|"C7"E3 G B3 d|"A7"d2 ^c2 A4|
"Gm"G3 B d3 f|"A7"f2 e2 ^c2 e2|"Dm"a2 g2 "A7"e2 ^c2|"Dm"dfe^c d4:|
